img/instagram.svg

<?xml version="1.0" encoding="UTF-8"?>
<svg width="18px" height="18px" viewBox="0 0 18 18" version="1.1" xmlns="http://www.w3.org/2000/svg" xmlns:xlink="http://www.w3.org/1999/xlink">
    <!-- Generator: Sketch 43.2 (39069) - http://www.bohemiancoding.com/sketch -->
    <title>instagram</title>
    <desc>Created with Sketch.</desc>
    <defs></defs>
    <g id="Page-1" stroke="none" stroke-width="1" fill="none" fill-rule="evenodd">
        <g id="instagram" fill-rule="nonzero" fill="#4C83FF">
            <path d="M17.94586,5.28931 C17.9309065,4.54268882 17.7894582,3.80400855 17.52753,3.10468 C17.3015394,2.50414041 16.9472753,1.96012249 16.48944,1.51056 C16.0398775,1.05272475 15.4958596,0.698460602 14.89532,0.47247 C14.1959915,0.210541813 13.4573112,0.0690935498 12.71069,0.05414 C11.75073,0.01038 11.44427,0 9,0 C6.55573,0 6.24927,0.01038 5.28931,0.05414 C4.54268882,0.0690935498 3.80400855,0.210541813 3.10468,0.47247 C2.50414041,0.698460602 1.96012249,1.05272475 1.51056,1.51056 C1.05272475,1.96012249 0.698460602,2.50414041 0.47247,3.10468 C0.210541813,3.80400855 0.0690935498,4.54268882 0.05414,5.28931 C0.01038,6.24927 0,6.55573 0,9 C0,11.44427 0.01038,11.75073 0.05414,12.71069 C0.0690935498,13.4573112 0.210541813,14.1959915 0.47247,14.89532 C0.698460602,15.4958596 1.05272475,16.0398775 1.51056,16.48944 C1.96010612,16.9472953 2.50412874,17.3015625 3.10468,17.52753 C3.80400855,17.7894582 4.54268882,17.9309065 5.28931,17.94586 C6.24927,17.98969 6.55573,18 9,18 C11.44427,18 11.75073,17.98969 12.71069,17.94586 C13.4573112,17.9309065 14.1959915,17.7894582 14.89532,17.52753 C16.1042544,17.0599688 17.0599588,16.1042644 17.52752,14.89533 C17.7894482,14.1960015 17.9308965,13.4573212 17.94585,12.7107 C17.98962,11.75073 18,11.44427 18,9 C18,6.55573 17.98962,6.24927 17.94586,5.28931 Z M16.32593,12.63678 C16.3191752,13.2074749 16.2143342,13.7727584 16.01599,14.30792 C15.7132468,15.0928479 15.0928462,15.7132522 14.30792,16.016 C13.7727565,16.2143373 13.2074742,16.319178 12.63678,16.32594 C11.68787,16.3692 11.40326,16.37836 9,16.37836 C6.59674,16.37836 6.31213,16.3692 5.36322,16.32593 C4.79252636,16.3191712 4.22724407,16.2143339 3.69208,16.016 C3.30115027,15.8717562 2.94752965,15.6417088 2.65723,15.34278 C2.3582963,15.0524785 2.12824542,14.6988542 1.984,14.30792 C1.78565581,13.7727584 1.68081482,13.2074749 1.67406,12.63678 C1.6308,11.68774 1.62164,11.40314 1.62164,9 C1.62164,6.59686 1.6308,6.31226 1.67407,5.36322 C1.68082875,4.79252636 1.78566614,4.22724407 1.984,3.69208 C2.12824383,3.30115027 2.35829116,2.94752965 2.65722,2.65723 C2.94752151,2.3582963 3.30114575,2.12824542 3.69208,1.984 C4.22724347,1.78566272 4.79252578,1.68082196 5.36322,1.67406 C6.31226,1.6308 6.59686,1.62164 9,1.62164 C11.40314,1.62164 11.68774,1.6308 12.63678,1.67407 C13.2074742,1.68083196 13.7727565,1.78567272 14.30792,1.98401 C14.6988497,2.12825383 15.0524704,2.35830116 15.34277,2.65723 C15.6417025,2.94752863 15.8717533,3.30114933 16.016,3.69208 C16.2143373,4.22724347 16.319178,4.79252578 16.32594,5.36322 C16.36921,6.31222 16.37837,6.59692 16.37837,9 C16.37837,11.40308 16.3692,11.68774 16.32593,12.63678 L16.32593,12.63678 Z M9,4.37836 C6.44753871,4.37836 4.37836,6.44753871 4.37836,9 C4.37836,11.5524613 6.44753871,13.62164 9,13.62164 C11.5524613,13.62164 13.62164,11.5524613 13.62164,9 C13.6216124,6.44755015 11.5524499,4.37838761 9,4.37836 L9,4.37836 Z M9,12 C7.34314575,12 6,10.6568542 6,9 C6,7.34314575 7.34314575,6 9,6 C10.6568542,6 12,7.34314575 12,9 C12,9.79564947 11.6839295,10.5587112 11.1213203,11.1213203 C10.5587112,11.6839295 9.79564947,12 9,12 Z M14.88422,4.1958 C14.88422,4.79226753 14.4006875,5.2758 13.80422,5.2758 C13.2077525,5.2758 12.72422,4.79226753 12.72422,4.1958 C12.72422,3.59933247 13.2077525,3.1158 13.80422,3.1158 C14.4006875,3.1158 14.88422,3.59933247 14.88422,4.1958 L14.88422,4.1958 Z" id="Shape"></path>
        </g>
    </g>
</svg>

<svg width="18" height="18" xmlns="http://www.w3.org/2000/svg"><path d="M17.946 5.29a6.606 6.606 0 00-.418-2.185 4.412 4.412 0 00-1.039-1.594A4.412 4.412 0 0014.895.472a6.606 6.606 0 00-2.184-.418C11.75.01 11.444 0 9 0S6.25.01 5.29.054a6.606 6.606 0 00-2.185.418c-.6.226-1.145.58-1.594 1.039-.458.45-.813.993-1.039 1.594a6.606 6.606 0 00-.418 2.184C.01 6.25 0 6.556 0 9s.01 2.75.054 3.71c.015.747.157 1.486.418 2.185.226.6.58 1.145 1.039 1.594.45.458.993.813 1.594 1.039a6.628 6.628 0 002.184.418C6.25 17.99 6.556 18 9 18s2.75-.01 3.71-.054a6.606 6.606 0 002.185-.418 4.602 4.602 0 002.633-2.633 6.628 6.628 0 00.418-2.184C17.99 11.75 18 11.444 18 9s-.01-2.75-.054-3.71zm-1.62 7.347a4.978 4.978 0 01-.31 1.67 2.98 2.98 0 01-1.708 1.709 4.99 4.99 0 01-1.671.31c-.95.043-1.234.052-3.637.052s-2.688-.009-3.637-.052a4.979 4.979 0 01-1.67-.31 2.788 2.788 0 01-1.036-.673 2.788 2.788 0 01-.673-1.035 4.978 4.978 0 01-.31-1.671c-.043-.95-.052-1.234-.052-3.637s.009-2.688.052-3.637c.007-.57.112-1.136.31-1.67.144-.392.374-.745.673-1.036a2.78 2.78 0 011.035-.673 4.979 4.979 0 011.671-.31c.95-.043 1.234-.052 3.637-.052s2.688.009 3.637.052c.57.007 1.136.112 1.67.31.392.144.745.374 1.036.673.299.29.529.644.673 1.035.198.535.303 1.1.31 1.671.043.95.052 1.234.052 3.637s-.009 2.688-.052 3.637zM9 4.378a4.622 4.622 0 100 9.244 4.622 4.622 0 000-9.244zM9 12a3 3 0 110-6 3 3 0 010 6zm5.884-7.804a1.08 1.08 0 11-2.16 0 1.08 1.08 0 012.16 0z" fill="#4C83FF"/></svg>
